X:1
T:Adagio
T:Clarinet Concerto No. 1, 2nd Mov. for Flute and Piano
T:W. A. Mozart (1756-1791)
%%score 1 { ( 2 5 ) | ( 3 4 ) }
L:1/8
Q:1/4=40
M:3/4
K:Eb
V:1 treble nm="Flute" snm="Fl."
V:2 treble nm="Harp" snm="Hrp."
V:5 treble 
V:3 bass 
V:4 bass 
V:1
 B2 e3 g | gf e2 z2 | B3 e gb | b^g =g2 z2 | f3 b gb | f3 b cg | B4 d/cB/ | B2 z2 z2 | z6 | z6 | %10
 z6 | z6 | z6 | z6 | z6 | z6 | g3 f ed | c2 z2 z2 | a3 g fe | d2 z2 z2 | b3 a gf | ea a3 g | %22
 g/f/a/f/ e2 g/fe/ | e2 z2 z2 | z6 | z6 | z6 | z6 | z6 | z6 | z6 | z6 | g>e b3 g/e/ | d2 f2 z2 | %34
 e'/4c'/4=a/4f/4e/4c/4=A/4F/4 .Eg fe | c>^c d2 z2 | f3 b/=a/ g/f/e/d/ | d/e/=B/c/ c2 z2 | %38
 .d>.e .f>.g ^gd | f2 e2 z2 | F2 c'2- c'/=a/f/e/ | ^c/d/e/=e/ f/g/=a/b/ ^f/g/_e/=c/ | B3 =B cf | %43
 e3/2f/4e/4 d2 z2 | F2- F/G/4=A/4.B/.A/ G/F/e/d/ | =B2 c2 z2 | %46
 (3d/c/B/(3c/d/e/ (3f/e/d/(3e/f/g/ ^g/b/c'/d/ | f2 e2 z2 | %48
 e2- e/4f/4g/4f/4e/4d/4c/4B/4 (3=A/G/F/(3e/d/c/ | .B2 f4 | .c2 g4 | %51
 (3F/^F/G/(3^G/=A/B/ (3=B/c/^c/(3d/e/=e/ (3f/^f/g/(3^g/=a/b/ | Tc4- c3/2B/4c/4 | B2 z2 z2 | %54
 B2- B/4D/4F/4B/4d/4f/4b/4d'/4 B/4c/4d/4e/4f/4g/4=a/4b/4 | =a2 z2 z2 | %56
 c2- c/4E/4=A/4c/4e/4f/4=a/4c'/4 A/4B/4c/4d/4e/4f/4g/4a/4 | ^g6- | g4- g/=g/b/^g/ | %59
 (3g/f/e/(3d/f/=e/ (3g/f/_e/(3d/c/B/ =A/B/c/B/ | B2 e3 g | gf e2 z2 | B3 e gb | b^g =g2 z2 | %64
 f3 b gb | f3 b cg | B4 d/cB/ | B2 z2 z2 | g3 f ed | c2 z2 z2 | a3 g fe | d2 z2 z2 | b3 a gf | %73
 e2 a3 g | g/f/g/a/ e2 g/fe/ | e2 z2 z2 | z6 | z6 | z6 | z6 | z6 | z6 | z6 | z2 z2 B/d/e/g/ | %84
 b2- b/=a/^g/f/ g/=g/g/e/ | b2- b/=a/^g/f/ g/=g/g/e/ | c/4=e/4f/4^g/4=b/4c'/4^g/4f/4 _e2 =g/fe/ | %87
 e2 z2 (3E/G/B/(3e/g/b/ | b2- b/=a/^g/f/ g/=g/g/e/ | B2- B/=A/^G/F/ G/=G/G/E/ | Fc' b^g =gf | %91
 (3e/B/c/(3^c/d/e/ (3=e/f/^f/(3g/^g/=a/ b/a/g/=g/ | Tf4- f3/2e/4f/4 | e2 z2 e/d/(3f/e/c/ | %94
 B4 =A^G | G2 z2 (3F/^G/=G/(3F/^G/c/ | B3 B cd | e2 e2 e2 | e4 z2 |] %99
V:2
 GB GB GB | AB GB GB | GB GB GB | FB GB GB | FB FB GB | FB FB EG | DF DF EF | .B,c BA GF | %8
 B2 e3 g | gf e2 z2 | B3 e gb | ba g2 z2 | f3 b gb | f3 b cg | B4 d/cB/ | .Bc BA GF | GE GE GE | %17
 .E c2 B AG | AF AF AF | .F d2 c BA | BD CF DA | GE FB EB | FA GB DF | .Ec BA GF | g3 f ed | %25
 c2 z2 z2 | a3 g fe | d2 z2 z2 | b3 a gf | e>a a3 g | f/c'/a/f/ e2 g/fe/ | .ec BA GF | z G GG GG | %33
 z F FF FF | z E2 G FE | C>^C D2 z2 | z .B .F.B .F.B | z .G .E.G .E.G | z .A .F.A .F.A | %39
 z .B .G.B .G.B | z .c .E.c .E.c | .D2 .B2 .G2 | z F DF ED | =A2 .B D2 E | .F2 .f2 .b2 | %45
 z2 .g2 .c'2 | z2 .a2 .d'2 | z2 .b2 .e'2 | z2 .e2 .c'2 | z D FB df | z E Gc eg | z D DD DD | %52
 C/C/C/C/ C/C/C/C/ C/C/C/C/ | B, B2 d2 f | .bD DD DD | E =A2 c2 e | .=aE EE EE | D A2 d2 f | %58
 a2 z2 z2 | z6 | GB GB GB | AB GB GB | GB GB GB | FB GB GB | FB FB GB | FB FB EG | DF DF EF | %67
 .Dc BA GF | GE GE GE | .E c2 B AG | AF AF AF | .F d2 c BA | BD CF DA | GE FB EB | FA GB DF | %75
 .Ec BA GF | g3 f ed | c2 z2 z2 | a3 g fe | d2 z2 z2 | b3 a gf | e>a a3 g | f/c'/a/f/ e2 g/fe/ | %83
 .ec BA GF | z B BB BB | z B BB BB | z A GG DD | EE EE EE | z F FF EE | z a aa gg | f2 z A Bc | %91
 z G GG GG | F/F/F/F/ F/F/F/F/ F/F/F/F/ | E2 z2 C>A | G4 _G>F | E2 z2 .c'2 | .b2 .g2 .f2 | %97
 .e2 .E2 .E2 | E4 z2 |] %99
V:3
 B,6- | B,6 | B,6- | B,6 | B,6- | B,4 G,2 | F,6- | F,A, G,F, E,D, | G,B, G,B, G,B, | %9
 A,B, G,B, G,B, | G,B, G,B, G,B, | F,B, G,B, G,B, | F,B, F,B, F,B, | F,B, F,B, [E,G,]2 | %14
 B,4 [=A,C]2 | B,6 | E,6 | A,2 B,2 C2 | F,6 | B,2 C2 D2 | G,2 A,2 B,2 | C2 D2 E2 | A,2 B,2 B,,2 | %23
 .G,A, G,F, E,D, | .G,E, G,E, G,E, | E,C B,,B, A,G, | A,F, A,F, A,F, | F,D C,C B,A, | %28
 B,D, C,F, D,A, | G,E, F,B, E,B, | F,A, G,B, D,F, | G,A, G,F, E,D, | E,6 | B,,6 | F,6- | %35
 F,2 B,,B, F,E, | D,6 | E,6 | F,6 | G,6 | =A,,6 | .B,,2 .D,2 .E,2 | F,6 | _G,2 .=G,G,, F,,E,, | %44
 D,,6 | E,,6 | F,,6 | G,,6 | =A,,6 | B,,2 z2 z2 | E,2 z2 z2 | F,2 z2 z2 | F,2 F,2 F,2 | %53
 B,2 F,2 D,2 | B,,2 z2 z2 | B,2 B,,2 B,2 | B,,2 z2 z2 | B,2 F,2 D,2 | B,,2 z2 z2 | z6 | E,6 | %61
 B,,2 E,2 z2 | E,6 | B,,2 E,2 z2 | B,,6- | B,,4 E,2 | F,2 F,2 F,2 | B,,2 z2 z2 | E,6 | A,2 B,2 C2 | %70
 F,6 | B,2 C2 D2 | G,2 A,2 B,2 | C2 D2 E2 | A,2 B,2 B,,2 | .G,A, G,F, E,D, | G,E, G,E, G,E, | %77
 E,C B,,B, A,G, | A,F, A,F, A,F, | F,D C,C B,A, | B,D, C,F, D,A, | G,E, F,B, E,B, | %82
 F,A, G,B, D,F, | G,A, G,F, E,D, | D4 E2 | D4 E2 | A,2 B,2 B,,2 | E,4 z2 | D,4 E,2 | D,4 E,2 | %90
 A,,4 z2 | B,,4 z2 | B,,2 B,,2 B,,2 | C,2 z2 z2 | z6 | z2 z2 A,,2 | B,,6 | .E,2 .B,,2 .G,,2 | %98
 E,,4 z2 |] %99
V:4
 x6 | x6 | x6 | x6 | x6 | x6 | x6 | x6 | E,6 | B,,2 E,2 z2 | E,6 | B,,2 E,2 x2 | F,2 x4 | x6 | %14
 D,F, D,F, E,F, | x6 | x6 | x6 | x6 | x6 | x6 | x6 | x6 | E,2 x4 | .E,2 x4 | A,,2 x2 C,2 | %26
 .F,2 F,,G,, A,,=A,, | B,,2 x2 D,2 | G,,3 A,, B,,=B,, | C,2 D,2 z2 | A,,2 B,,2 B,,2 | E,2 x4 | x6 | %33
 x6 | x6 | x6 | x6 | x6 | x6 | x6 | x6 | x6 | x6 | x6 | x6 | x6 | x6 | x6 | x6 | x6 | x6 | x6 | %52
 x6 | x6 | x6 | x6 | x6 | B,,6 | x6 | x6 | x6 | x6 | x6 | x6 | x6 | x6 | x6 | x6 | x6 | x6 | x6 | %71
 x6 | x6 | x6 | x6 | E,2 x4 | .E,2 x4 | A,,2 x2 C,2 | .F,2 F,,G,, A,,=A,, | B,,2 x2 D,2 | %80
 G,,3 A,, B,,=B,, | C,2 D,2 x2 | A,,2 B,,2 B,,2 | E,2 x4 | x6 | x6 | x6 | x6 | x6 | x6 | x6 | x6 | %92
 x6 | x6 | x6 | x6 | x6 | x6 | x6 |] %99
V:5
 x6 | x6 | x6 | x6 | x6 | x6 | x6 | x6 | x6 | x6 | x6 | x6 | x6 | x6 | x6 | x6 | x6 | x6 | x6 | %19
 x6 | x6 | x6 | x6 | x6 | x6 | x6 | x6 | x6 | x6 | x6 | x6 | x6 | x6 | x6 | x6 | x6 | x6 | x6 | %38
 x6 | x6 | x6 | x6 | x6 | x6 | x6 | x6 | x6 | x6 | x6 | x6 | x6 | x6 | x6 | x6 | x6 | x6 | x6 | %57
 d'6 | x6 | x6 | x6 | x6 | x6 | x6 | x6 | x6 | x6 | x6 | x6 | x6 | x6 | x6 | x6 | x6 | x6 | x6 | %76
 x6 | x6 | x6 | x6 | x6 | x6 | x6 | x6 | x6 | x6 | x6 | x6 | x6 | x6 | x6 | x6 | x6 | x6 | x6 | %95
 x6 | x6 | x6 | x6 |] %99

